Quickit/src/img/icons/behanse.svg

<svg width="43" height="30" viewBox="0 0 43 30" fill="none" xmlns="http://www.w3.org/2000/svg">
<path d="M11.75 15C13.4739 15 15.1272 14.3152 16.3462 13.0962C17.5652 11.8772 18.25 10.2239 18.25 8.5C18.25 6.77609 17.5652 5.12279 16.3462 3.90381C15.1272 2.68482 13.4739 2 11.75 2H2V28H11.75C13.4739 28 15.1272 27.3152 16.3462 26.0962C17.5652 24.8772 18.25 23.2239 18.25 21.5C18.25 19.7761 17.5652 18.1228 16.3462 16.9038C15.1272 15.6848 13.4739 15 11.75 15ZM11.75 15H2M25.8333 17.1667H41C41 15.1554 40.201 13.2266 38.7789 11.8044C37.3567 10.3823 35.4279 9.58333 33.4167 9.58333C31.4054 9.58333 29.4766 10.3823 28.0544 11.8044C26.6323 13.2266 25.8333 15.1554 25.8333 17.1667ZM25.8333 17.1667V21.5C26.0568 23.1221 26.7994 24.6283 27.9499 25.7934C29.1004 26.9585 30.5972 27.7199 32.2164 27.9637C33.8355 28.2076 35.4902 27.9208 36.9328 27.1462C38.3755 26.3717 39.5287 25.151 40.22 23.6667M30.1667 2H36.6667" stroke="white" stroke-width="3" stroke-linecap="round" stroke-linejoin="round"/>
</svg>

<svg xmlns="http://www.w3.org/2000/svg" width="43" height="30" fill="none" xmlns:v="https://vecta.io/nano"><path d="M11.75 15a6.5 6.5 0 0 0 6.5-6.5 6.5 6.5 0 0 0-6.5-6.5H2v26h9.75a6.5 6.5 0 0 0 6.5-6.5 6.5 6.5 0 0 0-6.5-6.5zm0 0H2m23.833 2.167H41c0-2.011-.799-3.94-2.221-5.362s-3.351-2.221-5.362-2.221-3.94.799-5.362 2.221-2.221 3.351-2.221 5.362zm0 0V21.5c.223 1.622.966 3.128 2.117 4.293s2.647 1.927 4.267 2.17 3.274-.043 4.716-.817 2.596-1.995 3.287-3.48M30.167 2h6.5" stroke="#fff" stroke-width="3" stroke-linecap="round" stroke-linejoin="round"/></svg>
